icons/cloud.svg

<svg xmlns="http://www.w3.org/2000/svg" width="24" height="24" viewBox="0 0 24 24">
  <path d="M12.2455902,3.00398632 C8.52762508,3.12063681 5.4117318,5.78500472 4.66919046,9.36089212 L4.646,9.48 L4.56984355,9.51249345 C2.43448394,10.4577805 1,12.5890868 1,15 L1.0043751,15.2308104 C1.11197825,18.064907 3.19270368,20.4215684 5.94889404,20.9081606 L6.166,20.942 L6.18145173,20.9482064 C6.28147754,20.9817932 6.38859112,21 6.5,21 L18,21 L18.2241536,20.9948042 C20.9044736,20.8633628 23,18.6686219 23,16 L22.9949844,15.7749408 C22.9183208,14.0574067 21.9683651,12.5292172 20.5287365,11.6859719 L20.472,11.654 L20.4920144,11.3602705 C20.4973322,11.2405319 20.5,11.1204206 20.5,11 C20.5,6.581722 16.918278,3 12.5,3 L12.2455902,3.00398632 Z"/>
</svg>

<svg xmlns="http://www.w3.org/2000/svg" viewBox="0 0 24 24">
  <path d="M12.25 3a8 8 0 0 0-7.58 6.36l-.02.12-.08.03A6 6 0 0 0 1 15v.23a6 6 0 0 0 4.95 5.68l.22.03h.01c.1.04.2.06.32.06h11.72A5 5 0 0 0 23 16v-.23a5 5 0 0 0-2.47-4.08l-.06-.04.02-.29.01-.36a8 8 0 0 0-8-8h-.25z"/>
</svg>
